X:28
T:Contentment is Wealth
M:6/8
L:1/8
Q:120
R:Jig (Key of Edor)
K:Edor
"Em"GFG Eed | BAB EFG | "D"FAF DdB | AFD D2f |
"Em"gfe edB | BAB ~d3 | "D"BdB DFA |1 "Em"GED E2F :|2 "Em"GED E2d |:
"Em"ede Beg | bge gfe | "D"dcd Adf | afd fed |
"Em"ede Beg | bge gfe| "D"BdB DFA |1"Em"GED E2d :|2 "Em"GED E2F |]
